svg/fluentui-system-icons/ic_fluent_document_header_dismiss_24_filled.svg

<svg width="24" height="24" viewBox="0 0 24 24" fill="none" xmlns="http://www.w3.org/2000/svg">
<path d="M17.7463 2C18.9369 2 19.9114 2.92498 19.9906 4.09553L19.9958 4.24955V11.4983C19.2278 11.1788 18.3853 11.0024 17.5017 11.0024C13.9127 11.0024 11.0033 13.912 11.0033 17.5011C11.0033 19.2442 11.6895 20.827 12.8065 21.9941H6.24942C5.05886 21.9941 4.08433 21.0691 4.00519 19.8985L4 19.7445V4.24955C4 3.05892 4.92492 2.08434 6.09541 2.00519L6.24942 2H17.7463ZM8.50397 5.00361C7.67576 5.00361 7.00435 5.67505 7.00435 6.50331C7.00435 7.33157 7.67576 8.00301 8.50397 8.00301H15.5022C16.3304 8.00301 17.0018 7.33157 17.0018 6.50331C17.0018 5.67505 16.3304 5.00361 15.5022 5.00361H8.50397ZM23 17.5011C23 20.5381 20.5382 23 17.5014 23C14.4646 23 12.0028 20.5381 12.0028 17.5011C12.0028 14.4641 14.4646 12.0022 17.5014 12.0022C20.5382 12.0022 23 14.4641 23 17.5011ZM15.8554 15.148C15.6602 14.9528 15.3437 14.9528 15.1485 15.148C14.9533 15.3432 14.9533 15.6598 15.1485 15.855L16.7945 17.5011L15.1485 19.1472C14.9533 19.3424 14.9533 19.659 15.1485 19.8542C15.3437 20.0494 15.6602 20.0494 15.8554 19.8542L17.5014 18.2081L19.1474 19.8542C19.3426 20.0494 19.6591 20.0494 19.8544 19.8542C20.0496 19.659 20.0496 19.3424 19.8544 19.1472L18.2083 17.5011L19.8544 15.855C20.0496 15.6598 20.0496 15.3432 19.8544 15.148C19.6591 14.9528 19.3426 14.9528 19.1474 15.148L17.5014 16.7941L15.8554 15.148Z" fill="#212121"/>
</svg>

<svg xmlns="http://www.w3.org/2000/svg" width="24" height="24"><path d="M17.746 2a2.25 2.25 0 0 1 2.245 2.096l.005.154v7.248a6.499 6.499 0 0 0-7.19 10.496H6.25a2.25 2.25 0 0 1-2.244-2.096L4 19.744V4.25a2.25 2.25 0 0 1 2.095-2.245L6.25 2h11.497ZM8.504 5.004a1.5 1.5 0 0 0 0 2.999h6.998a1.5 1.5 0 0 0 0-3H8.504ZM23 17.5a5.499 5.499 0 1 1-10.997 0A5.499 5.499 0 0 1 23 17.5Zm-7.145-2.353a.5.5 0 1 0-.707.707l1.646 1.646-1.646 1.646a.5.5 0 0 0 .707.707l1.646-1.646 1.646 1.646a.5.5 0 0 0 .707-.707L18.208 17.5l1.646-1.646a.5.5 0 0 0-.707-.707l-1.646 1.646-1.646-1.646Z"/></svg>
